!!!OTL: WER DIESEN RING NICHT FINDEN KANN
!!!ARE: Europa, Mitteleuropa, Deutschland, Nassau
!!!SCT: K2603A
!!!YEM: Copyright 1995, estate of Helmut Schaffrath.
**kern
*ICvox
*Ivox
*M2/4
*k[f#]
*G:
{8d
=1
8dd
8dd
8dd
8dd
=2
8dd
8b
8g}
{8b
=3
8a
8cc
8f#
8a
=4
8g
8b
8dd}
{8b
=5
8a
8cc
8f#
8a
=6
4g
8r}
{8g
=7
8a
8a
8b
8b
=8
8cc
8cc
8b}
{8b
=9
8a
8a
8b
8b
=10
4cc
4b
=11
4a
8r}
{8d
=12
8dd
8dd
8dd
8dd
=13
8dd
8b
8g}
{8b
=14
8a
8b
8cc
8f#
=15
8a
8g
4g}
==
!!!AGN: Kinder - Lied, Pfaender - Spiel
!!!ONB: ESAC (Essen Associative Code) Database: KINDER
!!!AMT: simple duple
!!!AIN: vox
!!!EED: Helmut Schaffrath
!!!EEV: 1.0
*-
